X:1
T:SpringinsFeld Jig
C:Jens Wollschlger
O:Germany
R:Jig
M:6/8
L:1/8
K:G
GAB|:d2B G2B|cec ABc|d2B G2B|AcA FGA|B2G BdB|cec ABc|dBG AGF|1~G3 GAB:|2~G3 G2A|
K:Emin
|:B2E Bdc|BAG AGF|D2D FDF|AFA cBA|B2E Bdc|BAG Bdc|BAG AGF|1~E3 EGA:|2~G3
